X: 12
T: Gravel walk, The
R:Reel
O:Co. Donegal, Ireland
S:Toby Arnold Rider <darkrider1@mindspring.COM> via irtrad-l
S:Chords by John Chambers <jc@trillian.mit.edu>
M:4/4
K:ADor
|: "Am"A2 eA BA eA | A2  eA "G"BA GB | "Am"A2 eA Bd ef | "G"ge dc BA GB :|
[| "Am"A2 aA gA fA | A2  eA "G"BA GB | "Am"A2 aA gA ef | "G"gf ge dB GB ||
|| "Am"A2 aA gA fA | A2  eA "G"BA GB | "Am"AB cd ef ga | "G"ge dc BA GB |]
|: "Am"cA AG A2 AB | cA ~A2 "G"BG Bd | "Am"cA AG A2 ef | "G"gf ge dB GB :|
|: "C"c2 gc ac gc | c2 gc "G"BA GB | "C"c2 gc ac ga | "G"ge dc BA GB || "C"c2 gc ac gc |
| "C"c2 gc "G"BA GB |1 "Am"AB cd "G"eg fa | ge dc BA GB :|2 | "Am"Aa (3aaa ag ea | "G"ge dc BA GB |]
%%sep 1 1 500
